X: 063
T: 6 Le Cavalier
T: le Cavalier
B: Robert Landrin "Potpourri fran\,cois des contre-danse ancienne tel quil se danse chez la Reine ..." 1760 p.6 #3  dance 02 #6
S: http://memory.loc.gov/cgi-bin/query/D?musdibib:2:./temp/~ammem_EbRS:
Z: 2014 John Chambers <jc:trillian.mit.edu>
M: 2/2
L: 1/8
K: G
% - - - - - - - - - - - - - - - - - - - - - - - - -
D2D2 |\
G2G2 GABc | d2cB AGFE |\
D2d2 ^cdec | d4 :|\
|: d2!f!e2 |\
dcBc d2e2 | dcBc d2e2 |
d2ed cBAG | !+!F2D2 EFGE |\
F2D2 EFGE | F2D2 d2B2 |\
edcB !+!A3G | G4 B2c2 |\
BAGA B2c2 |
BAGA B2c2 |\
B2cB AGFE | F2D2 EFGE |\
F2D2 EFGE | F2D2 d2B2 |\
edcB !+!A3!+!G | G4 :|
% - - - - - - - - - - - - - - - - - - - - - - - - -

%%sep 1 1 500
%%sep 1 1 500
